X: 1709
T: Mick Pilley's Schottische
B: australian traditional tunes wiki
L:1/8
R: Schottische
Q: 1/4=100
K:G
V:1 
B>c|"G"d>B A<BG2B>A|"C"G<E E>C"G"D2G>A|B<d e>g "Em"d>B A>G|"A7"E2A2A2"D7"B>c|
"G"d>B A<BG2B>A|"C"G>E E<C"G"D2G>A|"G"B<d "Em"e>g "G"d>B "D7"A>B|"G"G2G2G2B>A|
"G"B>d e>f"Em"g2BA|"G"B<d e>f"Em"g2e<g|"Em"a>g e<g "G"d>B A>G|"A7"E2A2A2"D7"B>c|
"G"d>B A<BG2B>A|"C"G>E E<C"G"D2G>A|"G"B<d "Em"e>g "G"d>B "D7"A<B|"G"G2G2G2z2||
% abcbook-tune_id 6342d53aae912a64ede0d171


% abcbook-boost 0
% abcbook-tablature 
% abcbook-transpose 
% abcbook-lastupdated 1665324379215
% abcbook-soundfonts 
% abcbook-repeats 1
% NFF Book 2010

